svgs/solid/scanner-keyboard.svg

<svg xmlns="http://www.w3.org/2000/svg" viewBox="0 0 512 512"><!--! Font Awesome Pro 6.6.0 by @fontawesome - https://fontawesome.com License - https://fontawesome.com/license (Commercial License) Copyright 2024 Fonticons, Inc. --><path d="M152 0l16 0c13.3 0 24 10.7 24 24l0 40-64 0 0-40c0-13.3 10.7-24 24-24zM312 0l16 0c13.3 0 24 10.7 24 24l0 40-64 0 0-40c0-13.3 10.7-24 24-24zM224 16c0-8.8 7.2-16 16-16s16 7.2 16 16l0 48-32 0 0-48zM400 0c8.8 0 16 7.2 16 16l0 256c0 8.8-7.2 16-16 16s-16-7.2-16-16l0-256c0-8.8 7.2-16 16-16zm48 24c0-13.3 10.7-24 24-24l16 0c13.3 0 24 10.7 24 24l0 240c0 13.3-10.7 24-24 24l-16 0c-13.3 0-24-10.7-24-24l0-240zM0 160c0-35.3 28.7-64 64-64l224 0c35.3 0 64 28.7 64 64l0 288c0 35.3-28.7 64-64 64L64 512c-35.3 0-64-28.7-64-64L0 160zm64 24l0 16c0 13.3 10.7 24 24 24l176 0c13.3 0 24-10.7 24-24l0-16c0-13.3-10.7-24-24-24L88 160c-13.3 0-24 10.7-24 24zm0 120l0 32c0 8.8 7.2 16 16 16l64 0c8.8 0 16-7.2 16-16l0-32c0-8.8-7.2-16-16-16l-64 0c-8.8 0-16 7.2-16 16zm16 80c-8.8 0-16 7.2-16 16l0 32c0 8.8 7.2 16 16 16l64 0c8.8 0 16-7.2 16-16l0-32c0-8.8-7.2-16-16-16l-64 0zm112-80l0 32c0 8.8 7.2 16 16 16l64 0c8.8 0 16-7.2 16-16l0-32c0-8.8-7.2-16-16-16l-64 0c-8.8 0-16 7.2-16 16zm16 80c-8.8 0-16 7.2-16 16l0 32c0 8.8 7.2 16 16 16l64 0c8.8 0 16-7.2 16-16l0-32c0-8.8-7.2-16-16-16l-64 0z"/></svg>

<svg xmlns="http://www.w3.org/2000/svg" viewBox="0 0 512 512"><!--! Font Awesome Pro 6.4.2 by @fontawesome - https://fontawesome.com License - https://fontawesome.com/license (Commercial License) Copyright 2023 Fonticons, Inc. --><path d="M152 0h16c13.3 0 24 10.7 24 24V64H128V24c0-13.3 10.7-24 24-24zM312 0h16c13.3 0 24 10.7 24 24V64H288V24c0-13.3 10.7-24 24-24zM224 16c0-8.8 7.2-16 16-16s16 7.2 16 16V64H224V16zM400 0c8.8 0 16 7.2 16 16V272c0 8.8-7.2 16-16 16s-16-7.2-16-16V16c0-8.8 7.2-16 16-16zm48 24c0-13.3 10.7-24 24-24h16c13.3 0 24 10.7 24 24V264c0 13.3-10.7 24-24 24H472c-13.3 0-24-10.7-24-24V24zM0 160c0-35.3 28.7-64 64-64H288c35.3 0 64 28.7 64 64V448c0 35.3-28.7 64-64 64H64c-35.3 0-64-28.7-64-64V160zm64 24v16c0 13.3 10.7 24 24 24H264c13.3 0 24-10.7 24-24V184c0-13.3-10.7-24-24-24H88c-13.3 0-24 10.7-24 24zm0 120v32c0 8.8 7.2 16 16 16h64c8.8 0 16-7.2 16-16V304c0-8.8-7.2-16-16-16H80c-8.8 0-16 7.2-16 16zm16 80c-8.8 0-16 7.2-16 16v32c0 8.8 7.2 16 16 16h64c8.8 0 16-7.2 16-16V400c0-8.8-7.2-16-16-16H80zm112-80v32c0 8.8 7.2 16 16 16h64c8.8 0 16-7.2 16-16V304c0-8.8-7.2-16-16-16H208c-8.8 0-16 7.2-16 16zm16 80c-8.8 0-16 7.2-16 16v32c0 8.8 7.2 16 16 16h64c8.8 0 16-7.2 16-16V400c0-8.8-7.2-16-16-16H208z"/></svg>
